!!! OTL: Berkowitz526
!!! Chapter: 1
!!! Section: IV
!!! Page: 132
!!! Mode: 
!!! Encoder: DJB
**kern
*staff1
*I"Piano
=1-
*clefC4
*k[b-e-]
*B-:
*M4/4
4B-\
4B-\
8.B-/L
16F/Jk
16G\LL
16A\
16B-\
16c\JJ
=2
*M3/8
8d\L
8c\
8B-\J
=3
*M2/4
4Bn\
4c\
=4
*M4/4
4F/
4F/
8.F/L
16G/Jk
16A\LL
16B-\
16c\
16d\JJ
=5
*M3/8
8e-\L
8d\
8c\J
=6
*M2/4
4d\
8.F/L
16F/Jk
=7
*M5/8
8G\L
8B-\
8G\J
8F/L
16D/L
16F/JJ
=8
!!linebreak:original
8G\L
8B-\
8G\J
8F/L
8D/J
=9
*M2/4
8r
16D/LL
16E-/JJ
16F/LL
16G/
16A/
16B-/JJ
=10
*M4/4
4B-\
4B-\
8.B-/L
16F/Jk
16G\LL
16A\
16B-\
16c\JJ
=11
*M3/8
8d\L
8c\
8B-\J
=12
*M4/4
4c\
4F/
2B-\
==
*-
